X: 32122
T: Peter Byrne's
R: jig
M: 6/8
K: Dmixolydian
D3 AFD|c2 A BAG|A3 AFD|c2 A BGE|
EDD AFD|cAA BAG|A3 cde|1 dcA AGE:|2 dcA AGA||
|:d2 A cde|dcA AGE|c2 A cde|dcA AGE|
EDD cde|dcA AGE|c2 d fed|c2 A BGE:|

